dist/img/decor.svg

<svg width="174" height="174" viewBox="0 0 174 174" fill="none" xmlns="http://www.w3.org/2000/svg">
<g clip-path="url(#clip0_3583_79)">
<path d="M127.685 -91.9759L124.782 -92.1163C73.6124 -94.6168 26.7567 -77.1979 -8.73747 -46.9113C-44.7109 -16.1753 -68.9845 27.7935 -74.1155 77.7465C-77.6396 111.994 -69.8021 141.55 -55.1421 164.926C-44.6263 181.67 -30.5865 195.212 -14.686 205.045C1.21446 214.879 19.0038 220.975 36.9906 222.83C60.3056 225.218 83.9872 220.526 104.596 207.686C111.926 203.107 118.551 197.881 124.443 192.178C140.203 179.17 157.364 154.839 159.591 126.379C162.044 94.8003 144.291 88.5351 138.906 67.5199C136.876 59.5971 138.793 51.1967 148.068 48.8367C156.188 46.7857 165.999 52.3205 164.899 64.4576C175.246 54.6805 175.81 33.3001 163.095 19.8145C146.687 2.45171 105.103 -3.84159 91.7401 43.3862C92.4167 17.2578 63.2376 -4.74064 33.4665 1.69314C51.7351 25.3492 11.1382 58.5857 50.241 76.1732C8.43169 71.9871 -5.29798 111.376 4.54116 131.155C17.8198 157.902 59.1779 162.004 77.1083 126.379C57.8247 134.751 40.8529 118.709 53.765 100.813C63.4632 87.3832 86.7219 83.787 104.511 103.397C119.594 120.03 120.846 150.819 113.219 164.439C105.593 178.06 99.476 180.205 89.806 186.246C74.8359 195.573 57.0071 195.914 39.9226 194.144C26.2211 192.74 12.6324 188.076 0.481454 180.546C-11.6695 173.017 -22.4671 162.594 -30.5583 149.67C-42.0326 131.38 -48.1504 108.005 -45.3311 80.6965C-40.9613 38.3291 -20.4091 1.04696 10.095 -24.9972C40.1763 -50.6761 79.9557 -65.426 123.4 -63.347L125.853 -63.2065L125.909 -63.2065C177.248 -60.0599 221.848 -36.5724 252.972 -1.25685C280.826 30.322 297.939 71.397 299.546 115.9C285.788 86.0065 254.41 62.7999 220.495 70.7789C203.185 74.8527 209.431 84.4332 200.466 99.9697C193.08 112.809 190.74 128.402 194.179 142.815C199.677 165.853 198.364 181.502 222.327 180.518C239.722 179.816 256.158 170.46 262.981 154.053C269.944 137.28 264.193 118.681 246.714 111.601C234.168 106.544 224.16 114.607 222.976 121.856C225.767 120.704 229.319 120.367 231.941 121.519C236.141 123.373 238.171 127.278 238.453 131.717C239.271 144.219 223.906 149.586 213.869 145.203C208.259 142.759 204.397 137.533 203.128 131.633C201.352 123.457 204.538 115.31 209.387 108.82C233.181 76.8194 279.247 102.105 286.634 133.852C289.425 145.821 292.582 164.167 290.891 176.276C290.186 181.305 289.312 186.053 288.184 190.576C283.223 205.073 276.71 218.868 268.901 231.876L268.647 232.241C268.393 232.691 268.112 233.112 267.83 233.562L301.04 233.562C316.433 204.09 326.019 171.303 328.189 136.381L328.189 136.325L328.33 133.6L328.33 133.487C331.178 75.1337 310.71 20.6011 274.709 -20.221C238.679 -61.1275 187.058 -88.3235 127.685 -91.9759Z" fill="#E42313"/>
</g>
<defs>
<clipPath id="clip0_3583_79">
<rect width="174" height="174" fill="white"/>
</clipPath>
</defs>
</svg>

<svg width="174" height="174" viewBox="0 0 174 174" fill="none" xmlns="http://www.w3.org/2000/svg"><g clip-path="url(#clip0_3583_79)"><path d="M127.685-91.976l-2.903-.14c-51.17-2.5-98.025 14.918-133.52 45.205C-44.71-16.175-68.983 27.794-74.114 77.746c-3.525 34.248 4.313 63.804 18.973 87.18 10.516 16.744 24.556 30.286 40.456 40.119 15.9 9.834 33.69 15.93 51.677 17.785 23.315 2.388 46.996-2.304 67.605-15.144a119.712 119.712 0 0019.847-15.508c15.76-13.008 32.921-37.339 35.148-65.799 2.453-31.579-15.3-37.844-20.685-58.86-2.03-7.922-.113-16.322 9.162-18.682 8.12-2.051 17.931 3.483 16.831 15.62 10.347-9.776 10.911-31.157-1.804-44.642-16.409-17.364-57.993-23.658-71.356 23.57.677-26.127-28.502-48.125-58.273-41.692C51.735 25.35 11.138 58.586 50.24 76.173c-41.81-4.186-55.539 35.203-45.7 54.982 13.279 26.747 54.637 30.849 72.567-4.776-19.283 8.372-36.255-7.67-23.343-25.566 9.698-13.43 32.957-17.026 50.746 2.584 15.083 16.633 16.335 47.422 8.708 61.042-7.626 13.621-13.743 15.766-23.413 21.807-14.97 9.327-32.799 9.668-49.883 7.898-13.702-1.404-27.29-6.068-39.442-13.598a96.765 96.765 0 01-31.04-30.876c-11.474-18.29-17.591-41.665-14.772-68.973 4.37-42.368 24.922-79.65 55.426-105.694 30.081-25.68 69.86-40.429 113.305-38.35l2.453.14h.056c51.339 3.147 95.939 26.635 127.063 61.95 27.854 31.579 44.967 72.654 46.574 117.157-13.758-29.894-45.136-53.1-79.051-45.121-17.31 4.074-11.064 13.654-20.029 29.19-7.386 12.84-9.726 28.433-6.287 42.846 5.498 23.038 4.185 38.687 28.148 37.703 17.395-.702 33.831-10.058 40.654-26.465 6.963-16.773 1.212-35.372-16.267-42.452-12.546-5.057-22.554 3.006-23.738 10.255 2.791-1.152 6.343-1.489 8.965-.337 4.2 1.854 6.23 5.759 6.512 10.198.818 12.502-14.547 17.869-24.584 13.486-5.61-2.444-9.472-7.67-10.741-13.57-1.776-8.176 1.41-16.323 6.259-22.813 23.794-32 69.86-6.715 77.247 25.032 2.791 11.969 5.948 30.315 4.257 42.424-.705 5.029-1.579 9.777-2.707 14.3-4.961 14.497-11.474 28.292-19.283 41.3l-.254.365c-.254.45-.535.871-.817 1.321h33.21c15.393-29.472 24.979-62.259 27.149-97.181v-.056l.141-2.725v-.113c2.848-58.353-17.62-112.886-53.621-153.708-36.03-40.906-87.651-68.102-147.024-71.755z" fill="#E42313"/></g><defs><clipPath id="clip0_3583_79"><path fill="#fff" d="M0 0h174v174H0z"/></clipPath></defs></svg>
